shields/template_usaal.svg

<?xml version="1.0" encoding="UTF-8" standalone="no"?>
<!-- Created with Inkscape (http://www.inkscape.org/) -->

<svg
   xmlns:dc="http://purl.org/dc/elements/1.1/"
   xmlns:cc="http://creativecommons.org/ns#"
   xmlns:rdf="http://www.w3.org/1999/02/22-rdf-syntax-ns#"
   xmlns:svg="http://www.w3.org/2000/svg"
   xmlns="http://www.w3.org/2000/svg"
   xmlns:sodipodi="http://sodipodi.sourceforge.net/DTD/sodipodi-0.dtd"
   xmlns:inkscape="http://www.inkscape.org/namespaces/inkscape"
   width="600"
   height="600"
   viewbox="0 0 600 600"
   id="svg2"
   sodipodi:version="0.32"
   inkscape:version="0.91 r"
   version="1.0"
   sodipodi:docname="template_usaal.svg">
  <defs
     id="defs4" />
  <sodipodi:namedview
     id="base"
     pagecolor="#ffffff"
     bordercolor="#666666"
     borderopacity="1.0"
     inkscape:pageopacity="0.0"
     inkscape:pageshadow="2"
     inkscape:zoom="0.64"
     inkscape:cx="508.35842"
     inkscape:cy="148.658"
     inkscape:document-units="px"
     inkscape:current-layer="g1366"
     inkscape:window-width="1920"
     inkscape:window-height="1020"
     inkscape:window-x="0"
     inkscape:window-y="0"
     showgrid="false"
     inkscape:window-maximized="1" />
  <metadata
     id="metadata7">
    <rdf:RDF>
      <cc:Work
         rdf:about="">
        <dc:format>image/svg+xml</dc:format>
        <dc:type
           rdf:resource="http://purl.org/dc/dcmitype/StillImage" />
        <dc:title />
      </cc:Work>
    </rdf:RDF>
  </metadata>
  <g
     inkscape:label="Layer 1"
     inkscape:groupmode="layer"
     id="layer1">
    <g
       style="overflow:visible"
       id="g1366"
       transform="translate(205.7143,95.21933)">
      <path
         style="color:black;fill:black;fill-opacity:1;fill-rule:nonzero;stroke:none;stroke-width:0.8735441;stroke-linecap:butt;stroke-linejoin:miter;stroke-miterlimit:4;stroke-dashoffset:0;stroke-opacity:1;marker:none;marker-start:none;marker-mid:none;marker-end:none;visibility:visible;display:inline;overflow:visible"
         d="M -168.21429,-95.21933 L 356.78571,-95.21933 C 377.56071,-95.21933 394.28571,-78.49433 394.28571,-57.71933 L 394.28571,467.28067 C 394.28571,488.05567 377.56071,504.78067 356.78571,504.78067 L -168.21429,504.78067 C -188.98929,504.78067 -205.71429,488.05567 -205.71429,467.28067 L -205.71429,-57.71933 C -205.71429,-78.49433 -188.98929,-95.21933 -168.21429,-95.21933 z "
         id="rect1877" />
      <path
         id="path7"
         d="" />
      <path
         style="fill:white;fill-opacity:1;stroke:none;stroke-opacity:1"
         d="M -90.052379,490.53704 C -92.292867,488.71294 -92.409535,488.26506 -91.224338,486.03841 C -89.016934,481.89142 -84.749302,480.24553 -70.72671,478.13297 C -56.804303,476.03566 -52.742691,474.89282 -52.742691,473.07298 C -52.742691,471.28256 -65.821343,453.57061 -70.500924,449.02371 C -74.420453,445.21526 -75.08048,443.88795 -76.506511,436.94654 C -80.602026,417.01099 -88.808246,405.5021 -98.76666,405.72765 C -110.93394,406.00332 -120.15703,424.48375 -121.87882,452.03791 C -122.66011,464.54105 -123.24668,467.97767 -125.45684,473.00126 C -127.79769,478.32202 -128.79375,479.12865 -133.04889,479.14975 C -135.27637,479.16081 -137.29874,478.11025 -140.02258,475.52742 C -145.14019,470.67462 -147.20018,470.02439 -157.71898,469.94194 C -164.95552,469.88525 -167.14044,469.49791 -169.13808,467.91804 C -170.49676,466.84346 -173.68845,465.67771 -176.23075,465.32729 C -178.77305,464.97697 -180.89094,464.18181 -180.93716,463.56039 C -180.9834,462.93887 -181.1534,461.28942 -181.31492,459.89486 C -181.47646,458.50029 -181.93087,451.95474 -182.32476,445.34925 C -182.71863,438.74365 -183.18073,432.12578 -183.35167,430.64288 C -183.5226,429.15988 -183.96311,422.46969 -184.33055,415.77576 C -184.69802,409.08182 -185.18472,401.32295 -185.4121,398.53382 C -185.63948,395.74467 -186.06852,389.69732 -186.36553,385.09525 C -186.66255,380.49316 -187.14859,372.9625 -187.44561,368.36041 C -187.74261,363.75833 -188.17431,357.71098 -188.40495,354.92184 C -188.63556,352.1327 -189.09051,345.51483 -189.41592,340.21548 C -189.74134,334.91611 -190.20214,328.29824 -190.43995,325.50911 C -190.67774,322.71996 -191.15582,315.46121 -191.50235,309.37856 C -191.84888,303.296 -192.45419,293.93971 -192.84745,288.58679 C -193.62191,278.04599 -194.33159,283.15518 -181.98641,210.39377 C -179.19438,193.93784 -174.59815,166.78179 -171.77259,150.04695 C -168.947,133.31213 -161.41924,88.812686 -155.0442,51.159316 C -148.66919,13.505951 -141.19065,-30.765283 -138.42526,-47.221209 C -135.65985,-63.677125 -133.14433,-78.396167 -132.8352,-79.930192 L -132.27312,-82.719331 L 92.512931,-82.719331 L 317.29899,-82.719331 L 318.43766,-77.394613 C 319.06387,-74.466019 325.25464,-44.913831 332.19478,-11.723076 C 339.13504,21.46767 352.31005,84.451488 361.47276,128.24096 C 370.63539,172.03043 378.74628,211.05302 379.4969,214.95781 C 382.85016,232.40037 382.51625,243.33633 378.51225,247.21373 C 375.91938,249.72456 373.29392,257.09265 372.29729,264.65518 C 371.9297,267.44432 370.79074,271.31696 369.76614,273.26114 C 367.2459,278.04355 367.43808,282.42797 370.58939,292.03945 C 372.8883,299.05114 373.3129,302.35764 373.71488,316.38101 C 374.09679,329.6989 373.84379,334.15452 372.30394,341.2297 C 370.79537,348.16127 370.48841,353.17726 370.73767,366.82588 C 371.04745,383.79063 371.04604,383.80259 368.51258,386.34984 C 367.11355,387.75638 364.71386,388.94617 363.15767,389.0048 C 361.60672,389.06322 277.15432,389.0267 175.4856,388.92356 L -9.3667199,388.73612 L -9.4924418,391.09938 C -10.251836,405.37451 -8.0912001,411.55565 1.7672202,423.3109 C 11.751585,435.21636 12.681114,448.91103 4.1167469,457.92623 C 2.1542588,459.99192 -0.54424946,464.76053 -2.1926602,469.07559 L -5.0729555,476.6154 L -25.125034,484.00813 L -45.177116,491.40076 L -66.370645,491.98181 C -86.517816,492.53417 -87.687027,492.46277 -90.052379,490.53704 z "
         id="path1483" />
      <text
         sodipodi:linespacing="125%"
         id="text4139"
         y="295.79382"
         x="94.432716"
         style="font-style:normal;font-variant:normal;font-weight:normal;font-stretch:normal;font-size:498.96325684px;line-height:125%;font-family:'Roadgeek 2014 Series D';-inkscape-font-specification:'Roadgeek 2014 Series D, Normal';text-align:center;letter-spacing:0px;word-spacing:0px;writing-mode:lr-tb;text-anchor:middle;overflow:visible;fill:#000000;fill-opacity:1;stroke:none;stroke-width:1px;stroke-linecap:butt;stroke-linejoin:miter;stroke-opacity:1"
         xml:space="preserve"><tspan
           y="295.79382"
           x="94.432693"
           id="tspan4141"
           sodipodi:role="line">***NUMBER***</tspan></text>
    </g>
  </g>
</svg>

<svg xmlns="http://www.w3.org/2000/svg" width="600" height="600" viewbox="0 0 600 600"><g transform="translate(205.71 95.22)"><path d="m-168.21-95.22h525c20.775 0 37.5 16.725 37.5 37.5v525c0 20.775-16.725 37.5-37.5 37.5h-525c-20.775 0-37.5-16.725-37.5-37.5v-525c0-20.775 16.725-37.5 37.5-37.5" color="#000"/><path d="m-90.05 490.54c-2.24-1.824-2.357-2.272-1.172-4.499 2.207-4.147 6.475-5.793 20.498-7.905 13.922-2.097 17.984-3.24 17.984-5.06 0-1.79-13.08-19.502-17.758-24.05-3.92-3.808-4.58-5.136-6.01-12.08-4.096-19.936-12.302-31.444-22.26-31.22-12.167.276-21.39 18.756-23.11 46.31-.781 12.503-1.368 15.94-3.578 20.963-2.341 5.321-3.337 6.127-7.592 6.148-2.227.011-4.25-1.039-6.974-3.622-5.118-4.853-7.178-5.503-17.696-5.585-7.237-.057-9.421-.444-11.419-2.024-1.359-1.075-4.55-2.24-7.093-2.591-2.542-.35-4.66-1.145-4.706-1.767-.046-.622-.216-2.271-.378-3.666-.162-1.395-.616-7.94-1.01-14.546-.394-6.606-.856-13.223-1.027-14.706-.171-1.483-.611-8.173-.979-14.867-.367-6.694-.854-14.453-1.082-17.242-.227-2.789-.656-8.837-.953-13.439-.297-4.602-.783-12.133-1.08-16.735-.297-4.602-.729-10.649-.959-13.439-.231-2.789-.686-9.407-1.01-14.706-.325-5.299-.786-11.917-1.024-14.706-.238-2.789-.716-10.05-1.062-16.13-.347-6.083-.952-15.439-1.345-20.792-.774-10.541-1.484-5.432 10.861-78.19 2.792-16.456 7.388-43.612 10.214-60.35 2.826-16.735 10.353-61.23 16.728-98.89 6.375-37.653 13.854-81.925 16.619-98.38 2.765-16.456 5.281-31.17 5.59-32.709l.562-2.789h224.79 224.79l1.139 5.325c.626 2.929 6.817 32.481 13.757 65.67 6.94 33.19 20.12 96.17 29.28 139.96 9.163 43.789 17.274 82.81 18.02 86.72 3.353 17.443 3.02 28.379-.985 32.26-2.593 2.511-5.218 9.879-6.215 17.441-.368 2.789-1.507 6.662-2.531 8.606-2.52 4.782-2.328 9.167.823 18.778 2.299 7.01 2.724 10.318 3.125 24.342.382 13.318.129 17.774-1.411 24.849-1.509 6.932-1.816 11.948-1.566 25.596.31 16.965.308 16.977-2.225 19.524-1.399 1.407-3.799 2.596-5.355 2.655-1.551.058-86 .022-187.67-.081l-184.85-.187-.126 2.363c-.759 14.275 1.401 20.456 11.26 32.21 9.984 11.905 10.914 25.6 2.35 34.615-1.962 2.066-4.661 6.834-6.309 11.149l-2.88 7.54-20.05 7.393-20.05 7.393-21.19.581c-20.15.552-21.316.481-23.682-1.445" fill="#fff"/><text y="295.79" x="94.43" font-family="&apos;Roadgeek 2014 Series D&apos;" letter-spacing="0" word-spacing="0" text-anchor="middle" text-align="center" line-height="125%" font-size="498.96"><tspan y="295.79" x="94.43">***NUMBER***</tspan></text></g></svg>
